images/close.svg

<svg fill="none" height="12" viewBox="0 0 12 12" width="12" xmlns="http://www.w3.org/2000/svg"><path d="m11.0004.918514c-.2043-.204194-.4813-.318905-.7701-.318905-.28882 0-.56581.114711-.77007.318905l-3.58675 3.586756-3.58676-3.586756c-.20543-.198408-.48056-.308193-.76615-.305712-.28558.002482-.55877.117033-.760718.31898-.201947.201948-.316498.475138-.31898.760718-.002481.28559.107305.56072.305712.76615l3.586756 3.58675-3.586756 3.58676c-.10403.10047-.187008.22066-.244092.35355-.057085.13289-.087132.27579-.088388.42039-.001257.1447.026302.2881.081068.422.054766.1338.135643.2554.237911.3577.102269.1023.223881.1831.357737.2379.13386.0548.27729.0823.42191.0811.14463-.0013.28755-.0313.42044-.0884s.25308-.1401.35355-.2441l3.58676-3.58676 3.58675 3.58676c.20543.1984.48056.3082.76617.3057.2856-.0025.5588-.117.7607-.319.2019-.2019.3165-.4751.319-.7607s-.1073-.56071-.3057-.76614l-3.58679-3.58676 3.58679-3.58675c.2042-.20426.3189-.48125.3189-.77007s-.1147-.56581-.3189-.770066z" fill="#5b5d7e"/></svg>

<svg width="12" height="12" viewBox="0 0 12 12" fill="none" xmlns="http://www.w3.org/2000/svg">
<path d="M11.0004 0.918514C10.7961 0.71432 10.5191 0.599609 10.2303 0.599609C9.94148 0.599609 9.66449 0.71432 9.46023 0.918514L5.87348 4.50527L2.28672 0.918514C2.08129 0.720106 1.80616 0.610321 1.52057 0.612802C1.23499 0.615284 0.9618 0.729835 0.759852 0.931782C0.557905 1.13373 0.443354 1.40692 0.440872 1.6925C0.438391 1.97809 0.548177 2.25322 0.746584 2.45865L4.33334 6.0454L0.746584 9.63216C0.642554 9.73263 0.559576 9.85282 0.502492 9.98571C0.445407 10.1186 0.41536 10.2615 0.414104 10.4061C0.412847 10.5508 0.440406 10.6942 0.495172 10.8281C0.549938 10.9619 0.630815 11.0835 0.733083 11.1858C0.835352 11.2881 0.956964 11.3689 1.09082 11.4237C1.22468 11.4785 1.36811 11.506 1.51273 11.5048C1.65736 11.5035 1.80028 11.4735 1.93317 11.4164C2.06606 11.3593 2.18625 11.2763 2.28672 11.1723L5.87348 7.58554L9.46023 11.1723C9.66566 11.3707 9.94079 11.4805 10.2264 11.478C10.512 11.4755 10.7852 11.361 10.9871 11.159C11.189 10.9571 11.3036 10.6839 11.3061 10.3983C11.3086 10.1127 11.1988 9.83759 11.0004 9.63216L7.41361 6.0454L11.0004 2.45865C11.2046 2.25439 11.3193 1.9774 11.3193 1.68858C11.3193 1.39976 11.2046 1.12277 11.0004 0.918514Z" fill="#5B5D7E"/>
</svg>
